static/images/icons/mail-icon.svg

<svg width="42" height="42" viewBox="0 0 42 42" fill="none" xmlns="http://www.w3.org/2000/svg">
<path fill-rule="evenodd" clip-rule="evenodd" d="M33.38 11C34.275 11 35 11.725 35 12.62V29.38C35 29.8096 34.8293 30.2217 34.5255 30.5255C34.2217 30.8293 33.8097 31 33.38 31H9.62C9.19035 31 8.7783 30.8293 8.47449 30.5255C8.17068 30.2217 8 29.8096 8 29.38V12.62C8 11.725 8.725 11 9.62 11H33.38ZM15.337 23.072L10.557 27.394L10.425 27.514L10.294 27.633L10.204 27.714L10.008 27.891C9.92757 27.9619 9.86203 28.0481 9.81519 28.1446C9.76834 28.2411 9.74111 28.3459 9.73509 28.453C9.72907 28.56 9.74437 28.6672 9.7801 28.7684C9.81584 28.8695 9.8713 28.9625 9.94326 29.042C10.0152 29.1215 10.1023 29.1859 10.1993 29.2316C10.2964 29.2772 10.4015 29.303 10.5087 29.3077C10.6158 29.3123 10.7228 29.2957 10.8235 29.2586C10.9241 29.2216 11.0164 29.165 11.095 29.092L16.424 24.274C16.5834 24.1299 16.679 23.9283 16.6898 23.7137C16.7006 23.499 16.6256 23.2889 16.4815 23.1295C16.3374 22.9701 16.1358 22.8745 15.9212 22.8637C15.7065 22.8529 15.4964 22.9279 15.337 23.072ZM27.663 23.072C27.5033 22.9302 27.294 22.8572 27.0807 22.869C26.8674 22.8807 26.6674 22.9762 26.5242 23.1347C26.381 23.2932 26.3062 23.5019 26.3161 23.7152C26.326 23.9286 26.4198 24.1294 26.577 24.274L31.905 29.092C31.9836 29.165 32.0759 29.2216 32.1765 29.2586C32.2772 29.2957 32.3842 29.3123 32.4913 29.3077C32.5985 29.303 32.7036 29.2772 32.8007 29.2316C32.8977 29.1859 32.9848 29.1215 33.0567 29.042C33.1287 28.9625 33.1842 28.8695 33.2199 28.7684C33.2556 28.6672 33.2709 28.56 33.2649 28.453C33.2589 28.3459 33.2317 28.2411 33.1848 28.1446C33.138 28.0481 33.0724 27.9619 32.992 27.891L32.797 27.714L32.707 27.633L32.575 27.514L32.443 27.394L27.663 23.072ZM32.003 12.908L26.719 17.685L26.215 18.141C24.6433 19.5623 23.0716 20.9836 21.5 22.405L19.282 20.399L16.785 18.141L16.281 17.685L10.998 12.908C10.8382 12.7671 10.6294 12.6948 10.4167 12.7067C10.204 12.7187 10.0046 12.814 9.86164 12.9719C9.71869 13.1299 9.64371 13.3378 9.65295 13.5506C9.66219 13.7634 9.7549 13.964 9.911 14.109L15.194 18.887L15.446 19.115L18.196 21.601L20.692 23.858L20.764 23.924L20.957 24.098L20.964 24.105L20.899 24.04C21.0107 24.163 21.1574 24.2489 21.3194 24.286C21.4813 24.3232 21.6508 24.31 21.805 24.248C21.8689 24.2213 21.9293 24.1871 21.985 24.146L22.022 24.117L22.036 24.105L22.043 24.098L22.236 23.924L22.308 23.858L24.805 21.601L27.554 19.115L27.806 18.887L33.089 14.109C33.2451 13.964 33.3378 13.7634 33.347 13.5506C33.3563 13.3378 33.2813 13.1299 33.1384 12.9719C32.9954 12.814 32.796 12.7187 32.5833 12.7067C32.3706 12.6948 32.1628 12.7671 32.003 12.908Z" fill="white"/>
</svg>

<svg xmlns="http://www.w3.org/2000/svg" width="42" height="42" fill="none" viewBox="0 0 42 42"><linearGradient id="b" x1="8.5" x2="34.5" y1="7" y2="36" gradientUnits="userSpaceOnUse"><stop offset="0" stop-color="#fec976"/><stop offset=".5" stop-color="#ffea8d"/><stop offset="1" stop-color="#cade39"/></linearGradient><clipPath id="a"><path d="M0 0h42v42H0z"/></clipPath><g clip-path="url(#a)"><path fill="url(#b)" d="M21 42c11.598 0 21-9.402 21-21S32.598 0 21 0 0 9.402 0 21s9.402 21 21 21z"/><path fill="#0e1025" fill-rule="evenodd" d="M33.38 11c.895 0 1.62.725 1.62 1.62v16.76A1.62 1.62 0 0 1 33.38 31H9.62A1.62 1.62 0 0 1 8 29.38V12.62c0-.895.725-1.62 1.62-1.62zM15.337 23.072l-4.78 4.322-.132.12-.131.119-.09.081-.196.177a.81.81 0 1 0 1.087 1.201l5.329-4.818a.81.81 0 0 0-1.087-1.202zm12.326 0a.81.81 0 0 0-1.086 1.202l5.328 4.818a.81.81 0 1 0 1.087-1.201l-.195-.177-.09-.081-.132-.119-.132-.12-4.78-4.322zm4.34-10.164-5.284 4.777-.504.456a76066.462 76066.462 0 0 0-4.715 4.264l-2.218-2.006-2.497-2.258-.504-.456-5.283-4.777a.81.81 0 0 0-1.087 1.201l5.283 4.778.252.228 2.75 2.486 2.496 2.257.072.066.193.174.007.007-.065-.065a.814.814 0 0 0 .906.208.862.862 0 0 0 .18-.102l.037-.029.014-.012.007-.007.193-.174.072-.066 2.497-2.257 2.749-2.486.252-.228 5.283-4.778a.81.81 0 0 0-1.087-1.201z" clip-rule="evenodd"/></g></svg>
